src/actions/32/mail-reply-custom-all.svg

<svg xmlns="http://www.w3.org/2000/svg" viewBox="0 0 32 32">
  <defs id="defs3051">
    <style type="text/css" id="current-color-scheme">
      .ColorScheme-Text {
        color:#2e3440;
      }
      </style>
  </defs>
 <path 
     style="fill:currentColor;fill-opacity:1;stroke:none" 
     d="M 2 5 L 2 18 L 3 18 L 3 12 L 29 12 L 29 26 L 13 26 L 13 27 L 30 27 L 30 5 L 2 5 z M 3 6 L 29 6 L 29 11 L 3 11 L 3 6 z M 7 18.064453 L 2 22.013672 L 7 25.960938 L 7 23 L 7 21.025391 L 7 18.064453 z M 8 21.025391 L 8 23 L 10 23 L 10 21.025391 L 8 21.025391 z M 11 21.025391 L 11 23 L 13 23 L 13 21.025391 L 11 21.025391 z "
     class="ColorScheme-Text"
     />
</svg>

<svg viewBox="0 0 32 32" xmlns="http://www.w3.org/2000/svg">
 <defs>
  <style type="text/css">.ColorScheme-Text {
        color:#2e3440;
      }</style>
 </defs>
 <path class="ColorScheme-Text" d="m2 5v13h1v-6h26v14h-16v1h17v-22h-28zm1 1h26v5h-26v-5zm4 12.064-5 3.9492 5 3.9473v-2.9609-1.9746-2.9609zm1 2.9609v1.9746h2v-1.9746h-2zm3 0v1.9746h2v-1.9746h-2z" fill="currentColor"/>
</svg>
